;Generated with Cura_SteamEngine 14.09
; Default start code
; M220 S* Velocità
; M221 S* Flusso
; M600 X30 Y160 Z5 E0 L0  Sospensione stampa con LCD
; M106 S* Accende ventola
; M107 Spegne ventola
; M92 X* Y* Z* E* cambia passi ai motori
; G92 X* Y* Z* E* Imposta punto zero degli assi
G21       ;metric value
G90       ;Absolute positioning
M140 S65  ;faccio partire il lettino
G28       ;X0 Y0 Z0 Home axis
G29       ;auto bed leveling
M109 T0 S190  ;aspetta temperatura estrusore
T0
M190 S65      ;aspetta temperatura lettino
M82                  ; Extruder in absolute mode
G92 E0               ; Reset extruder position
G1 F200 E3           ;extrude 3mm of feed stock
G92 E0               ;zero the extruded length again
;Layer count: 343
;LAYER:0
M107
G0 F6000 X52.060 Y56.831 Z0.300
;TYPE:SKIRT
G1 F1800 X56.833 Y52.058 E0.17189
G1 X62.080 Y47.808 E0.34383
G1 X67.488 Y44.297 E0.50803
G1 X67.736 Y44.135 E0.51557
G1 X73.697 Y41.097 E0.68594
G1 X79.996 Y38.672 E0.85782
G1 X86.512 Y36.918 E1.02965
G1 X88.821 Y36.544 E1.08922
G1 X92.767 Y35.919 E1.19096
G1 X92.767 Y35.920 E1.19098
G1 X93.252 Y35.842 E1.20349
G1 X99.697 Y35.504 E1.36784
G1 X99.986 Y35.487 E1.37521
G1 X106.454 Y35.826 E1.54014
G1 X106.757 Y35.844 E1.54787
G1 X111.103 Y36.531 E1.65991
G1 X113.412 Y36.897 E1.71945
G1 X119.219 Y38.453 E1.87254
G1 X119.937 Y38.646 E1.89147
G1 X126.172 Y41.039 E2.06154
G1 X132.190 Y44.097 E2.23343
G1 X137.668 Y47.645 E2.39963
G1 X137.926 Y47.814 E2.40749
G1 X142.932 Y51.868 E2.57152
G1 X143.168 Y52.060 E2.57927
G1 X147.941 Y56.833 E2.75116
G1 X151.997 Y61.841 E2.91526
G1 X152.190 Y62.079 E2.92307
G1 X155.692 Y67.473 E3.08683
G1 X155.864 Y67.736 E3.09484
G1 X158.902 Y73.697 E3.26521
G1 X161.327 Y79.996 E3.43709
G1 X163.079 Y86.503 E3.60869
G1 X163.271 Y87.662 E3.63860
G1 X164.158 Y93.256 E3.78283
G1 X164.444 Y98.731 E3.92244
G1 X164.511 Y99.998 E3.95475
G1 X164.173 Y106.454 E4.11938
G1 X164.155 Y106.757 E4.12711
G1 X163.231 Y112.595 E4.27762
G1 X163.230 Y112.595 E4.27765
G1 X163.102 Y113.410 E4.29866
G1 X161.372 Y119.866 E4.46886
G1 X159.478 Y124.820 E4.60391
G1 X158.934 Y126.239 E4.64261
G1 X155.901 Y132.192 E4.81275
G1 X152.354 Y137.668 E4.97889
G1 X152.185 Y137.926 E4.98674
G1 X148.131 Y142.932 E5.15078
G1 X147.939 Y143.168 E5.15853
G1 X143.166 Y147.941 E5.33041
G1 X138.158 Y151.997 E5.49452
G1 X137.920 Y152.190 E5.50232
G1 X132.511 Y155.702 E5.66655
G1 X132.263 Y155.864 E5.67409
G1 X126.302 Y158.902 E5.84447
G1 X120.031 Y161.316 E6.01558
G1 X119.315 Y161.519 E6.03453
G1 X113.411 Y163.102 E6.19018
G1 X111.171 Y163.456 E6.24793
G1 X107.232 Y164.080 E6.34949
G1 X107.232 Y164.079 E6.34952
G1 X106.747 Y164.157 E6.36202
G1 X100.302 Y164.495 E6.52637
G1 X100.013 Y164.512 E6.53374
G1 X93.545 Y164.173 E6.69868
G1 X93.242 Y164.155 E6.70640
G1 X88.896 Y163.468 E6.81845
G1 X86.587 Y163.102 E6.87798
G1 X80.133 Y161.372 E7.04813
G1 X73.829 Y158.961 E7.22000
G1 X67.809 Y155.902 E7.39196
G1 X62.148 Y152.235 E7.56371
G1 X60.611 Y151.001 E7.61391
G1 X56.833 Y147.941 E7.73771
G1 X52.058 Y143.166 E7.90967
G1 X48.000 Y138.155 E8.07387
G1 X47.809 Y137.920 E8.08158
G1 X44.297 Y132.511 E8.24581
G1 X44.135 Y132.263 E8.25335
G1 X41.102 Y126.311 E8.42346
G1 X40.551 Y124.899 E8.46206
G1 X38.645 Y119.935 E8.59746
G1 X36.922 Y113.503 E8.76703
G1 X36.783 Y112.688 E8.78808
G1 X35.842 Y106.743 E8.94135
G1 X35.504 Y100.303 E9.10557
G1 X35.487 Y100.015 E9.11292
G1 X35.550 Y98.805 E9.14377
G1 X35.842 Y93.256 E9.28527
G1 X36.713 Y87.746 E9.42733
G1 X36.898 Y86.586 E9.45724
G1 X38.627 Y80.133 E9.62736
G1 X41.038 Y73.829 E9.79923
G1 X44.097 Y67.809 E9.97118
G1 X47.645 Y62.331 E10.13738
G1 X47.814 Y62.073 E10.14524
G1 X51.868 Y57.067 E10.30927
G1 X52.060 Y56.831 E10.31702
G0 F6000 X52.506 Y57.234
G1 F1800 X57.235 Y52.505 E10.48732
G1 X62.434 Y48.294 E10.65769
G1 X67.815 Y44.800 E10.82107
G1 X68.037 Y44.654 E10.82784
G1 X73.942 Y41.646 E10.99659
G1 X80.182 Y39.243 E11.16687
G1 X86.638 Y37.505 E11.33712
G1 X88.916 Y37.137 E11.39588
G1 X92.854 Y36.513 E11.49742
G1 X93.315 Y36.439 E11.50931
G1 X99.728 Y36.103 E11.67284
G1 X99.728 Y36.104 E11.67286
G1 X99.987 Y36.088 E11.67947
G1 X106.421 Y36.425 E11.84353
G1 X106.692 Y36.441 E11.85045
G1 X113.287 Y37.485 E12.02048
G1 X119.064 Y39.033 E12.17278
G1 X119.751 Y39.218 E12.19090
G1 X125.928 Y41.588 E12.35937
G1 X131.890 Y44.618 E12.52968
G1 X137.341 Y48.148 E12.69505
G1 X137.572 Y48.300 E12.70209
G1 X142.554 Y52.334 E12.86533
G1 X142.765 Y52.506 E12.87226
G1 X147.494 Y57.235 E13.04257
G1 X151.531 Y62.219 E13.20589
G1 X151.704 Y62.432 E13.21288
G1 X155.199 Y67.815 E13.37632
G1 X155.345 Y68.037 E13.38308
G1 X158.353 Y73.942 E13.55184
G1 X160.756 Y80.182 E13.72211
G1 X162.492 Y86.630 E13.89216
G1 X162.679 Y87.758 E13.92127
G1 X163.560 Y93.319 E14.06465
G1 X163.845 Y98.768 E14.20360
G1 X163.844 Y98.768 E14.20362
G1 X163.910 Y99.998 E14.23499
G1 X163.574 Y106.421 E14.39877
G1 X163.558 Y106.693 E14.40571
G1 X162.638 Y112.501 E14.55545
G1 X162.514 Y113.285 E14.57567
G1 X160.801 Y119.680 E14.74425
G1 X158.918 Y124.605 E14.87852
G1 X158.385 Y125.994 E14.91641
G1 X155.380 Y131.892 E15.08497
G1 X151.851 Y137.341 E15.25029
G1 X151.699 Y137.572 E15.25733
G1 X147.665 Y142.554 E15.42057
G1 X147.493 Y142.765 E15.42750
G1 X142.764 Y147.494 E15.59780
G1 X137.780 Y151.531 E15.76113
G1 X137.567 Y151.704 E15.76812
G1 X132.184 Y155.199 E15.93155
G1 X131.962 Y155.345 E15.93832
G1 X126.057 Y158.353 E16.10708
G1 X119.841 Y160.747 E16.27670
G1 X119.156 Y160.941 E16.29483
G1 X113.286 Y162.514 E16.44958
G1 X111.077 Y162.863 E16.50653
G1 X107.145 Y163.486 E16.60791
G1 X106.684 Y163.560 E16.61980
G1 X100.271 Y163.896 E16.78333
G1 X100.271 Y163.895 E16.78335
G1 X100.012 Y163.911 E16.78996
G1 X93.578 Y163.574 E16.95402
G1 X93.307 Y163.558 E16.96094
G1 X86.712 Y162.514 E17.13097
G1 X80.318 Y160.801 E17.29953
G1 X74.073 Y158.412 E17.46980
G1 X68.109 Y155.381 E17.64016
G1 X62.500 Y151.748 E17.81033
G1 X60.988 Y150.534 E17.85971
G1 X57.235 Y147.494 E17.98270
G1 X52.505 Y142.764 E18.15304
G1 X48.466 Y137.777 E18.31646
G1 X48.295 Y137.567 E18.32336
G1 X44.800 Y132.184 E18.48679
G1 X44.654 Y131.962 E18.49356
G1 X41.650 Y126.065 E18.66208
G1 X41.111 Y124.683 E18.69986
G1 X39.217 Y119.749 E18.83444
G1 X37.509 Y113.375 E19.00248
G1 X37.376 Y112.591 E19.02273
G1 X36.439 Y106.680 E19.17513
G1 X36.103 Y100.272 E19.33853
G1 X36.104 Y100.272 E19.33856
G1 X36.088 Y100.013 E19.34517
G1 X36.149 Y98.836 E19.37518
G1 X36.439 Y93.319 E19.51586
G1 X37.306 Y87.840 E19.65712
G1 X37.485 Y86.711 E19.68623
G1 X39.198 Y80.318 E19.85477
G1 X41.587 Y74.073 E20.02503
G1 X44.618 Y68.109 E20.19539
G1 X48.148 Y62.658 E20.36077
G1 X48.300 Y62.427 E20.36781
G1 X52.334 Y57.445 E20.53105
G1 X52.506 Y57.234 E20.53798
G0 F6000 X52.952 Y57.636
G1 F1800 X57.637 Y52.951 E20.70670
G1 X62.787 Y48.781 E20.87544
G1 X68.142 Y45.303 E21.03805
G1 X68.142 Y45.304 E21.03807
G1 X68.339 Y45.174 E21.04408
G1 X74.186 Y42.195 E21.21119
G1 X80.368 Y39.814 E21.37988
G1 X86.764 Y38.092 E21.54855
G1 X89.011 Y37.729 E21.60652
G1 X92.955 Y37.105 E21.70820
G1 X93.379 Y37.037 E21.71913
G1 X99.738 Y36.704 E21.88128
G1 X99.989 Y36.689 E21.88769
G1 X106.387 Y37.024 E22.05083
G1 X106.628 Y37.038 E22.05698
G1 X113.162 Y38.073 E22.22544
G1 X118.908 Y39.612 E22.37692
G1 X119.565 Y39.789 E22.39425
G1 X125.684 Y42.137 E22.56115
G1 X131.590 Y45.138 E22.72984
G1 X137.013 Y48.651 E22.89438
G1 X137.218 Y48.785 E22.90062
G1 X142.176 Y52.800 E23.06308
G1 X142.363 Y52.952 E23.06922
G1 X147.048 Y57.637 E23.23793
G1 X151.065 Y62.597 E23.40047
G1 X151.218 Y62.785 E23.40664
G1 X154.696 Y68.142 E23.56928
G1 X154.695 Y68.142 E23.56931
G1 X154.825 Y68.339 E23.57532
G1 X157.804 Y74.186 E23.74242
G1 X160.185 Y80.368 E23.91112
G1 X161.905 Y86.758 E24.07963
G1 X162.087 Y87.854 E24.10792
G1 X162.962 Y93.382 E24.25044
G1 X163.246 Y98.799 E24.38858
G1 X163.245 Y98.799 E24.38860
G1 X163.310 Y99.998 E24.41918
G1 X162.975 Y106.387 E24.58210
G1 X162.961 Y106.628 E24.58824
G1 X162.045 Y112.405 E24.73719
G1 X162.046 Y112.405 E24.73722
G1 X161.927 Y113.161 E24.75671
G1 X160.229 Y119.495 E24.92370
G1 X158.358 Y124.390 E25.05714
G1 X157.836 Y125.750 E25.09424
G1 X154.860 Y131.591 E25.26117
G1 X151.348 Y137.013 E25.42567
G1 X151.214 Y137.218 E25.43191
G1 X147.199 Y142.176 E25.59437
G1 X147.047 Y142.363 E25.60051
G1 X142.362 Y147.048 E25.76923
G1 X137.402 Y151.065 E25.93176
G1 X137.214 Y151.218 E25.93793
G1 X131.857 Y154.696 E26.10057
G1 X131.857 Y154.695 E26.10060
G1 X131.660 Y154.825 E26.10661
G1 X125.813 Y157.804 E26.27371
G1 X119.651 Y160.177 E26.44186
G1 X118.996 Y160.362 E26.45919
G1 X113.161 Y161.927 E26.61303
G1 X110.982 Y162.271 E26.66921
G1 X110.982 Y162.270 E26.66923
G1 X107.044 Y162.894 E26.77076
G1 X106.620 Y162.962 E26.78170
G1 X100.261 Y163.295 E26.94385
G1 X100.010 Y163.310 E26.95025
G1 X93.612 Y162.975 E27.11340
G1 X93.371 Y162.961 E27.11955
G1 X86.837 Y161.926 E27.28801
G1 X80.504 Y160.229 E27.45497
G1 X74.316 Y157.862 E27.62368
G1 X68.409 Y154.861 E27.79240
G1 X62.852 Y151.261 E27.96101
G1 X61.364 Y150.067 E28.00959
G1 X57.637 Y147.048 E28.13173
G1 X52.951 Y142.362 E28.30048
G1 X48.934 Y137.402 E28.46301
G1 X48.781 Y137.214 E28.46919
G1 X45.303 Y131.857 E28.63183
G1 X45.304 Y131.857 E28.63186
G1 X45.174 Y131.660 E28.63787
G1 X42.198 Y125.819 E28.80480
G1 X41.670 Y124.466 E28.84178
G1 X39.788 Y119.563 E28.97552
G1 X38.096 Y113.246 E29.14205
G1 X37.968 Y112.494 E29.16148
G1 X37.037 Y106.617 E29.31300
G1 X36.703 Y100.241 E29.47558
G1 X36.689 Y100.011 E29.48145
G1 X36.749 Y98.868 E29.51060
G1 X37.037 Y93.382 E29.65049
G1 X37.899 Y87.933 E29.79097
G1 X38.073 Y86.836 E29.81926
G1 X39.770 Y80.504 E29.98619
G1 X42.137 Y74.316 E30.15490
G1 X45.138 Y68.409 E30.32362
G1 X48.651 Y62.986 E30.48816
G1 X48.785 Y62.781 E30.49440
G1 X52.800 Y57.823 E30.65686
G1 X52.952 Y57.636 E30.66299
G1 F2400 E29.66299
G0 F6000 X56.076 Y60.451
;TYPE:WALL-INNER
G1 F2400 E30.66299
G1 F1800 X60.451 Y56.076 E30.82055
G1 X65.254 Y52.187 E30.97792
G1 X70.431 Y48.825 E31.13511
G1 X75.902 Y46.035 E31.29150
G1 X81.673 Y43.813 E31.44898
G1 X87.651 Y42.203 E31.60663
G1 X89.673 Y41.876 E31.65879
G1 X93.613 Y41.253 E31.76037
G1 X93.822 Y41.219 E31.76576
G1 X99.982 Y40.897 E31.92284
G1 X100.002 Y40.896 E31.92335
G1 X106.157 Y41.218 E32.08030
G1 X106.169 Y41.218 E32.08060
G1 X112.292 Y42.187 E32.23846
G1 X117.818 Y43.668 E32.38415
G1 X118.266 Y43.789 E32.39596
G1 X123.974 Y45.979 E32.55165
G1 X129.494 Y48.784 E32.70932
G1 X134.719 Y52.169 E32.86786
G1 X139.548 Y56.076 E33.02603
G1 X143.923 Y60.451 E33.18359
G1 X147.812 Y65.254 E33.34096
G1 X151.174 Y70.431 E33.49815
G1 X153.964 Y75.902 E33.65454
G1 X156.186 Y81.673 E33.81201
G1 X157.795 Y87.648 E33.96959
G1 X157.940 Y88.523 E33.99217
G1 X158.779 Y93.820 E34.12874
G1 X159.051 Y99.018 E34.26129
G1 X159.103 Y100.001 E34.28636
G1 X158.781 Y106.157 E34.44333
G1 X158.781 Y106.169 E34.44364
G1 X157.812 Y112.292 E34.60150
G1 X156.230 Y118.194 E34.75710
G1 X154.435 Y122.889 E34.88509
G1 X153.996 Y124.034 E34.91632
G1 X151.213 Y129.497 E35.07245
G1 X147.830 Y134.719 E35.23089
G1 X143.923 Y139.548 E35.38907
G1 X139.548 Y143.923 E35.54662
G1 X134.745 Y147.812 E35.70400
G1 X129.568 Y151.174 E35.86119
G1 X124.097 Y153.964 E36.01757
G1 X118.321 Y156.188 E36.17518
G1 X112.290 Y157.812 E36.33423
G1 X106.387 Y158.746 E36.48642
G1 X106.177 Y158.780 E36.49184
G1 X100.017 Y159.102 E36.64892
G1 X99.997 Y159.103 E36.64943
G1 X93.842 Y158.781 E36.80638
G1 X93.830 Y158.781 E36.80668
G1 X87.707 Y157.812 E36.96454
G1 X81.809 Y156.231 E37.12004
G1 X76.016 Y154.015 E37.27798
G1 X70.505 Y151.215 E37.43539
G1 X65.323 Y147.858 E37.59262
G1 X64.000 Y146.796 E37.63582
G1 X60.451 Y143.923 E37.75210
G1 X56.076 Y139.548 E37.90965
G1 X52.187 Y134.745 E38.06703
G1 X48.825 Y129.568 E38.22422
G1 X46.032 Y124.092 E38.38075
G1 X45.586 Y122.948 E38.41202
G1 X43.787 Y118.261 E38.53986
G1 X42.203 Y112.349 E38.69572
G1 X42.111 Y111.808 E38.70969
G1 X41.220 Y106.179 E38.85482
G1 X40.897 Y100.018 E39.01192
G1 X40.896 Y99.998 E39.01243
G1 X41.220 Y93.820 E39.16997
G1 X42.187 Y87.707 E39.32757
G1 X43.768 Y81.809 E39.48307
G1 X45.984 Y76.016 E39.64101
G1 X48.784 Y70.505 E39.79842
G1 X52.169 Y65.280 E39.95696
G1 X56.076 Y60.451 E40.11513
G0 F6000 X70.414 Y66.062
G1 F1800 X70.333 Y66.176 E40.11869
G1 X69.643 Y67.655 E40.16025
G1 X69.586 Y67.777 E40.16368
G1 X69.167 Y69.343 E40.20496
G1 X69.128 Y69.481 E40.20862
G1 X68.986 Y71.110 E40.25025
G1 X68.973 Y71.239 E40.25356
G1 X69.115 Y72.876 E40.29540
G1 X69.129 Y73.013 E40.29891
G1 X69.550 Y74.584 E40.34032
G1 X69.587 Y74.717 E40.34384
G1 X70.274 Y76.191 E40.38525
G1 X70.333 Y76.315 E40.38875
G1 X71.309 Y77.710 E40.43210
G1 X72.495 Y78.910 E40.47506
G1 X72.594 Y79.010 E40.47865
G1 X73.925 Y79.941 E40.52001
G1 X74.039 Y80.022 E40.52357
G1 X75.514 Y80.710 E40.56502
G1 X75.640 Y80.770 E40.56857
G1 X77.206 Y81.188 E40.60984
G1 X77.344 Y81.226 E40.61349
G1 X78.972 Y81.368 E40.65510
G1 X79.119 Y81.380 E40.65886
G1 X80.750 Y81.238 E40.70055
G1 X80.876 Y81.225 E40.70378
G1 X82.447 Y80.805 E40.74519
G1 X82.580 Y80.768 E40.74870
G1 X84.105 Y80.057 E40.79155
G1 X85.023 Y79.471 E40.81928
G1 X85.639 Y78.995 E40.83911
G1 X86.872 Y77.761 E40.88353
G1 X87.803 Y76.430 E40.92489
G1 X87.884 Y76.316 E40.92845
G1 X88.575 Y74.837 E40.97002
G1 X88.633 Y74.714 E40.97348
G1 X89.050 Y73.149 E41.01473
G1 X89.089 Y73.011 E41.01838
G1 X89.231 Y71.382 E41.06002
G1 X89.244 Y71.253 E41.06332
G1 X89.102 Y69.616 E41.10516
G1 X89.088 Y69.480 E41.10864
G1 X88.668 Y67.907 E41.15010
G1 X88.631 Y67.774 E41.15362
G1 X87.943 Y66.301 E41.19502
G1 X87.884 Y66.177 E41.19851
G1 X86.950 Y64.842 E41.24000
G1 X86.870 Y64.730 E41.24351
G1 X85.624 Y63.482 E41.28842
G1 X84.288 Y62.548 E41.32993
G1 X84.178 Y62.470 E41.33336
G1 X82.699 Y61.780 E41.37492
G1 X82.577 Y61.723 E41.37835
G1 X81.012 Y61.304 E41.41961
G1 X80.874 Y61.265 E41.42326
G1 X79.198 Y61.118 E41.46610
G1 X79.111 Y61.110 E41.46832
G1 X77.479 Y61.252 E41.51004
G1 X77.342 Y61.266 E41.51355
G1 X75.770 Y61.687 E41.55499
G1 X75.637 Y61.724 E41.55850
G1 X74.164 Y62.411 E41.59989
G1 X74.040 Y62.470 E41.60339
G1 X72.645 Y63.446 E41.64674
G1 X71.445 Y64.632 E41.68971
G1 X71.345 Y64.731 E41.69329
G1 X70.414 Y66.062 E41.73465
G0 F6000 X69.228 Y69.500
G0 X69.229 Y72.993
G0 X68.100 Y101.041
G1 F1800 X67.962 Y101.002 E41.73831
G1 X66.333 Y100.860 E41.77994
G1 X66.204 Y100.847 E41.78325
G1 X64.499 Y100.995 E41.82683
G1 X63.190 Y101.335 E41.86127
G1 X62.730 Y101.459 E41.87340
G1 X61.253 Y102.148 E41.91490
G1 X61.129 Y102.207 E41.91840
G1 X59.793 Y103.141 E41.95991
G1 X59.680 Y103.221 E41.96343
G1 X58.434 Y104.468 E42.00832
G1 X57.503 Y105.799 E42.04969
G1 X57.422 Y105.913 E42.05325
G1 X56.734 Y107.388 E42.09469
G1 X56.675 Y107.514 E42.09824
G1 X56.256 Y109.079 E42.13949
G1 X56.217 Y109.217 E42.14314
G1 X56.075 Y110.846 E42.18478
G1 X56.062 Y110.974 E42.18806
G1 X56.150 Y111.995 E42.21415
G1 X56.216 Y112.742 E42.23325
G1 X56.639 Y114.321 E42.27488
G1 X56.676 Y114.454 E42.27839
G1 X57.363 Y115.927 E42.31978
G1 X57.422 Y116.051 E42.32328
G1 X58.356 Y117.386 E42.36477
G1 X58.436 Y117.498 E42.36827
G1 X59.598 Y118.662 E42.41016
G1 X59.717 Y118.771 E42.41427
G1 X61.100 Y119.737 E42.45722
G1 X62.673 Y120.479 E42.50151
G1 X64.434 Y120.964 E42.54803
G1 X66.061 Y121.105 E42.58961
G1 X66.190 Y121.118 E42.59291
G1 X67.827 Y120.976 E42.63476
G1 X67.964 Y120.962 E42.63826
G1 X69.536 Y120.541 E42.67970
G1 X69.669 Y120.504 E42.68322
G1 X71.209 Y119.786 E42.72649
G1 X72.690 Y118.763 E42.77232
G1 X73.863 Y117.595 E42.81448
G1 X73.961 Y117.497 E42.81801
G1 X74.892 Y116.166 E42.85937
G1 X74.973 Y116.052 E42.86293
G1 X75.661 Y114.577 E42.90438
G1 X75.720 Y114.451 E42.90792
G1 X76.139 Y112.885 E42.94920
G1 X76.178 Y112.747 E42.95285
G1 X76.332 Y110.982 E42.99797
G1 X76.191 Y109.352 E43.03963
G1 X76.178 Y109.223 E43.04293
G1 X75.854 Y107.924 E43.07702
G1 X75.710 Y107.491 E43.08864
G1 X75.032 Y106.038 E43.12947
G1 X74.973 Y105.914 E43.13297
G1 X73.997 Y104.519 E43.17632
G1 X72.811 Y103.319 E43.21929
G1 X72.712 Y103.219 E43.22287
G1 X71.377 Y102.285 E43.26436
G1 X71.267 Y102.207 E43.26780
G1 X69.788 Y101.517 E43.30935
G1 X69.666 Y101.460 E43.31278
